X:22
T:Helen's Jig Set
C:First 2 tunes from Ceol Aneas 2015, latter 2 from Mike Lean
T:Port an Bhand
T:(Wran Day Jig)
M:6/8
K:D
dAd cAc| BAF AFD|dAd cAc| BAF E3|dAd cAc| BAF A[FB][Ed]|D2F AFD| EFE D3:|:
DEF ABc| BAF AFE|DEF ABc| BAF E3|DEF ABc| BAF ABd|D2F AFD| EFE D3:|
T:Tuar na hAimsire
T:(The Weather Forcast)
K:D
D2F EDB,| DFA dcd|edB AFD| FAF ECA,|D2F EDB,| DFA dcd|edB AFE| FDC D3:|:
d2f ede| fdB AFA|BdB AFD| FE^D E3|d2f ede| fdB AFA|BdB AFE| FDC DFA|
d2f ede| fdB AFA|dcB AFD| CEC A,B,C|ABc d2f| edB AFD|FAF DEF| EDC D3|
T:Brae Roy Road
M:6/8
K:D
A,3 A,B,D|E3 EFE|DFE DdA|B3 A>Bc|
d>dd c>BA|d2B A>FE|D>DD EDE|1F>EE E>DB,:|2F>DD D3|
|:DFA DGB|Ddc d2e|f2d e2c|d2B ABc|
d>dd cBA|d2B AFE|D>DD EDE|1F>EE E3:|2F>DD D3|\
T:Rodney Millar's Wife (actual name unavailable)
f3f>gf|ecA ecA|Bcd ecA|Bcd efg|
f3f>gf|ecA ecA|Bcd ecA|1ABc d2A:|2ABc d2=c|:
B3 B=cB|GBB BcB|ADD dDD|cDD =cDD|
B3 B=cB|GBB BcB|ABA ABc|1d3 d2=c:|2d3 d2A|

